X:1
T:Send Out a Light
T:Send Out a Light
T:Daniel Brink Towner
T:Mary Bernstecher, 1916
T:Public Domain Courtesy of the Cyber Hymnal™
T:Public Domain Courtesy of the Cyber Hymnal™
C:Daniel Brink Towner
Z:Public Domain
Z:Courtesy of the Cyber Hymnal™
%%score ( 1 2 ) ( 3 4 )
L:1/8
Q:1/4=108
M:4/4
K:G
V:1 treble 
V:2 treble 
V:3 bass 
V:4 bass 
V:1
 [B,D]2 [B,G]>[CA] [DB]2 [DA][DG] | [CE]2 [CG]2 [DG]3 [DG] | [EG]2 [DF]>[CE] [^CA]2 [CG]2 | %3
w: 1.~Send out a light as you|go your way, A|bea- con of hope when|
w: 2.~Send out a light when your|bur- dens press, And|show to the world that|
w: 3.~Send out a light un- to|those who stray, All|heed- less a- long de-|
 [DF][DF] [EG]2 [FA]4 | [GB]2 [GB]>[GA] [DG]2 [B,D][B,D] | [CE][CG] [CG]2 [B,D]4 | %6
w: sha- dows are gray;|Send out a light that for|Je- sus will shine,|
w: Je- sus will bless;|Thro’ dark- est sor- rows and|bit- ter- est pain,|
w: struct- ion’s high- way;|Point them to path- ways of|pur- er de- light,|
 [CE]2 [DF][EG] D2 [DG][DA] | [DB]2 [DG][DA] [DG]4 ||"^Refrain" [Gc]2 [Gc]>[Gc] [Gc]3 [GA] | %9
w: Prov- ing to o- thers God’s|mer- cy di- vine.||
w: Send out a light— it will|not shine in vain.|Send out a light, a|
w: And let your life dai- ly|send out a light.||
 [GB]2 [GB]2 [GB]2 [GB][GB] | [GA]2 [GA][GA] [G^c]2 [GA]2 | [Fd][Fd] [Gd]2 !fermata!d4 | %12
w: |||
w: ra- diant light, That will|pierce thro’ the gloom of|some- one’s dark night,|
w: |||
 [GB]2 [GB]>[GA] [DG]3 [DF] | [CE]2 [Ec]>[Ec] [DB]4 | [DG]2 (3([B,D][DG])[GB] [Gd]2 G2 | %15
w: |||
w: Send out a light, a|bright beam- ing light,|Send out * a light for|
w: |||
 A4 [DG]4 |] %16
w: |
w: Je- sus.|
w: |
V:2
 x8 | x8 | x8 | x8 | x8 | x8 | x4 D2 x2 | x8 || x8 | x8 | x8 | x4 (AG F2) | x8 | x8 | x6 G2 | %15
 (F2 D2) x4 |] %16
V:3
 G,2 G,>G, G,2 [B,,G,][B,,G,] | [C,G,]2 [E,G,]2 [G,B,]3 [G,B,] | %2
 [C,C]2 [C,A,]>[C,G,] [A,,G,]2 [A,,A,]2 | [D,A,][D,A,] [D,A,]2 [D,D]4 | %4
 [G,D]2 [G,D]>[G,C] [G,B,]2 G,G, | [C,G,][C,E,] [E,G,]2 G,4 | %6
 [C,G,]2 [C,G,][C,G,] [B,,G,]2 [B,,G,][C,G,] | [D,G,]2 [D,B,][D,C] [G,,G,B,]4 || %8
 [C,E]2 [C,E]>[C,E] [C,E]3 [C,E] | [G,D]2 [G,D]2 [G,D]2 [G,D][G,D] | [A,^C]2 [A,C][A,C] A,2 A,2 | %11
 [D,A,][D,A,] [D,B,]2 (!fermata!CB, A,2) | G,2 [G,D]>[G,C] [G,B,]3 [B,,G,] | %13
 [C,G,]2 [C,G,]>[C,G,] G,4 | [G,B,]2 (3(G,B,)[G,D] [G,B,]2 [B,,D]2 | (D2 C2) [G,,G,B,]4 |] %16
V:4
 G,2 G,>G, G,2 x2 | x8 | x8 | x8 | x6 G,G, | x4 G,4 | x8 | x8 || x8 | x8 | x4 A,2 A,2 | x4 D,4 | %12
 G,2 x6 | x4 G,4 | x2 G,2 x4 | D,4 x4 |] %16

